X:57
T:Crossing the Shannon
Z: id:dc-reel-51
M:C
L:1/8
K:D Major
FG|Add2 AdFG|Add2 fdBd|Add2 fdAF|G2FG EFGB|!
Add2 AdFG|Add2 fdBd|Adfa gefa|gece d2:|!
FG|Add2 fage|fage fdBd|Add2 fdAF|G2FG EFGB|!
Add2 fage|fage fdBd|Adfa gefa|gece d2:|!

